gama.ui.shared/icons_svg/dark/experiment/experiment.step.back.svg

<svg height="25" viewBox="-634.774 -3215.705 25 25" width="25" xmlns="http://www.w3.org/2000/svg"><g fill="none"><circle cx="-622.274" cy="-3203.205" fill="#666" r="12"/><circle cx="-622.274" cy="-3203.205" r="12" stroke="#fff" stroke-linecap="round" stroke-linejoin="round" stroke-width=".25"/><path d="m-623.8297-3201.7782 6.2145 4.2155c.2333.1557.5444.0934.7-.1323.0544-.0854.0855-.1788.0855-.28v-11.402c0-.28-.2255-.5057-.5055-.5057-.10115 0-.20226.0311-.28.0857l-6.2145 4.2154v3.8112zm0-4.7522 5.7711-3.92c.21-.1478.4667-.2178.7234-.2178.70774 0 1.2833.5755 1.2833 1.2832v11.4023c0 .2567-.0778.5057-.2178.7234-.4044.5833-1.19776.7389-1.7889.3423l-5.7711-3.92v2.2088c0 1.0732-.8711 1.9444-1.9444 1.9444h-.7778c-1.0733 0-1.94445-.8712-1.94445-1.9444v-10.1111c0-1.0734.87115-1.9445 1.94445-1.9445h.7778c1.0733 0 1.9444.8711 1.9444 1.9445zm-1.9444 9.0688c.6455 0 1.16664-.5211 1.16664-1.1666v-10.1111c0-.6457-.52114-1.1667-1.16664-1.1667h-.7778c-.64556 0-1.1667.521-1.1667 1.1667v10.1111c0 .6455.52114 1.1666 1.1667 1.1666z" fill="#e3e6e1"/></g></svg>

<?xml version="1.0" encoding="UTF-8" standalone="no"?>
<!DOCTYPE svg PUBLIC "-//W3C//DTD SVG 1.1//EN" "http://www.w3.org/Graphics/SVG/1.1/DTD/svg11.dtd">
<svg xmlns="http://www.w3.org/2000/svg" xmlns:xl="http://www.w3.org/1999/xlink" version="1.1" xmlns:dc="http://purl.org/dc/elements/1.1/" viewBox="-634.7741 -3215.705 24.999996 25" width="24.999996" height="25">
  <defs/>
  <g id="SOURCES" stroke-opacity="1" fill="none" stroke="none" fill-opacity="1" stroke-dasharray="none">
    <title>SOURCES</title>
    <g id="SOURCES_Dark">
      <title>Dark</title>
      <g id="Graphic_11364">
        <circle cx="-622.2741" cy="-3203.205" r="12.000018268838" fill="#666"/>
        <circle cx="-622.2741" cy="-3203.205" r="12.000018268838" stroke="white" stroke-linecap="round" stroke-linejoin="round" stroke-width=".25"/>
      </g>
      <g id="Graphic_11363">
        <path d="M -623.8297 -3201.7782 L -617.6152 -3197.5627 C -617.3819 -3197.407 -617.0708 -3197.4693 -616.9152 -3197.695 C -616.8608 -3197.7804 -616.8297 -3197.8738 -616.8297 -3197.975 L -616.8297 -3209.377 C -616.8297 -3209.657 -617.0552 -3209.8827 -617.3352 -3209.8827 C -617.43635 -3209.8827 -617.53746 -3209.8516 -617.6152 -3209.797 L -623.8297 -3205.5816 L -623.8297 -3201.7704 Z M -623.8297 -3206.5304 L -618.0586 -3210.4504 C -617.8486 -3210.5982 -617.5919 -3210.6682 -617.3352 -3210.6682 C -616.62746 -3210.6682 -616.0519 -3210.0927 -616.0519 -3209.385 L -616.0519 -3197.9827 C -616.0519 -3197.726 -616.1297 -3197.477 -616.2697 -3197.2593 C -616.6741 -3196.676 -617.46746 -3196.5204 -618.0586 -3196.917 L -623.8297 -3200.837 L -623.8297 -3198.6282 C -623.8297 -3197.555 -624.7008 -3196.6838 -625.7741 -3196.6838 L -626.5519 -3196.6838 C -627.6252 -3196.6838 -628.49635 -3197.555 -628.49635 -3198.6282 L -628.49635 -3208.7393 C -628.49635 -3209.8127 -627.6252 -3210.6838 -626.5519 -3210.6838 L -625.7741 -3210.6838 C -624.7008 -3210.6838 -623.8297 -3209.8127 -623.8297 -3208.7393 Z M -625.7741 -3197.4616 C -625.1286 -3197.4616 -624.60746 -3197.9827 -624.60746 -3198.6282 L -624.60746 -3208.7393 C -624.60746 -3209.385 -625.1286 -3209.906 -625.7741 -3209.906 L -626.5519 -3209.906 C -627.19746 -3209.906 -627.7186 -3209.385 -627.7186 -3208.7393 L -627.7186 -3198.6282 C -627.7186 -3197.9827 -627.19746 -3197.4616 -626.5519 -3197.4616 Z" fill="#e3e6e1"/>
      </g>
    </g>
  </g>
</svg>
